X: 122
T: Miss Nisbet of Dirleton's Strathspey
R: strathspey
B: William Shepherd "1st Collection" 1793 p.12 #2
F: http://imslp.org/wiki/File:PMLP73094-Shepherd_Collections_HMT.pdf
C: William Shepherd (17??-1812)
Z: 2012 John Chambers <jc:trillian.mit.edu>
M: C|
L: 1/8
K: Gdor
B |\
~G<Gd>G G<gB<g | F>cA>c f>cA>F |\
~G<Gd>B G>Bg>d | f>c {d}cB/A/ BGTG :: B |\
G>gTg2 {fg}d>gB>g |
A>fTf2 c>fA>F |\
[1 G>gg2 {fg}d>gG<g | F>f {d}cB/A/ BTGG :|\
[2 G>AB>G c>Ad>B | f>c {d}cB/A/ BTGG |]
